X: 61
T: Xiao huang ma
L: 1/8
K: C
E2>G2A2c d [I:setbarnb 1]| 
[M:3/4]d d-d4 | 
d (3d/ d/ e/e3e/ g/ | 
[M:4/4]d c A (3A/ A/ c/G4 | 
[M:3/4]G G/ G/A2c d | 
d4-d (3e/ e/ g/ | 
[M:2/4]d (3d/ d/ e/c2 | 
E4(3E E G | 
[M:3/4]D6 | 
[M:4/4]GE2E/ A/ (3C D G A (3c/ d/ c/ | 
[M:3/4]A cG4 | 
[M:4/4](3G A d c dd4 | 
d (3d/ d/ e/e3(3e/ e/ a/ | 
[M:3/4]d (3d/ d/ e/c2z2 | 
E E A d d (3d/ d/ e/ d c/ A/ | 
c (3c/ c/ d/A4 |]

@@@ Tune index: 8729
